X:1
T:Loch Broom Bay
M:6/8
L:1/8
Q:80
C:D. Ross
S:Slow Air
K:HP
[| {g}A2{GAG}A{g}ce2 | \
{g}f2e{g}ce2 | \
{g}A2{GAG}A{g}ce2 |
{g}f2c{gBd}B3 | \
{g}e2f{g}ec2 | \
{gfg}f2e{g}fa2 |
{cd}c2ea2{g}a | \
{cd}c{e}B2{G}A3|] [ | \
{gcd}c2f{g}c{G}A2 |
{ag}a2e{g}fa2 | \
e2fa2{g}a | \
{ef}e2c{gBd}B3 |
{g}f2e{g}c{G}A2 | \
{gcd}c2e{g}fa2 | \
{cd}c2ea2{g}a |
{cd}c{e}B2{G}A3|]
